Papirus/22x22/panel/workrave-indicator-quiet.svg

<?xml version="1.0" encoding="UTF-8" standalone="no"?>
<svg xmlns:dc="http://purl.org/dc/elements/1.1/" xmlns:cc="http://creativecommons.org/ns#" xmlns:rdf="http://www.w3.org/1999/02/22-rdf-syntax-ns#" xmlns:svg="http://www.w3.org/2000/svg" xmlns="http://www.w3.org/2000/svg" version="1.0" width="22" height="22" id="svg2817">
    <metadata id="metadata57">
        <rdf:RDF>
            <cc:Work rdf:about="">
                <dc:format>
                    image/svg+xml
                </dc:format>
                <dc:type rdf:resource="http://purl.org/dc/dcmitype/StillImage"/>
                <dc:title/>
            </cc:Work>
        </rdf:RDF>
    </metadata>
    <path id="path4350" d="M 11 3 A 4 4 0 0 0 7 7 A 4 4 0 0 0 11 11 A 4 4 0 0 0 15 7 A 4 4 0 0 0 11 3 z M 10 5 L 12 5 L 12 6 L 13 6 L 13 8 L 12 8 L 12 9 L 10 9 L 10 8 L 9 8 L 9 6 L 10 6 L 10 5 z M 11 13 C 2.9995555 13.0043 3 18.144531 3 18.144531 L 3 19 L 13.173828 19 L 14.708984 17.464844 L 12.585938 15.34375 L 14.505859 13.423828 C 13.551113 13.162524 12.404785 12.999323 11 13 z M 15.414062 13.929688 L 14 15.34375 L 16.123047 17.464844 L 14 19.587891 L 15.414062 21 L 17.535156 18.878906 L 19.658203 21 L 21.070312 19.587891 L 18.949219 17.464844 L 21.070312 15.34375 L 19.658203 13.929688 L 17.535156 16.052734 L 15.414062 13.929688 z " style="color:#000000;text-indent:0;text-decoration:none;text-decoration-line:none;text-transform:none;block-progression:tb;fill:#ffffff;fill-opacity:1;opacity:1"/>
    <g transform="translate(-39.548917,-10.213014)" id="g4146" style="fill:none;fill-opacity:1">
        <path d="m 30.565,21.238 1.414,1.414 -1.793,1.793 5.172,0 0,2 -5.172,0 1.793,1.793 -1.414,1.414 -4.207,-4.207 z" style="opacity:1;fill:none;fill-opacity:1;fill-rule:nonzero;stroke:none" id="path4148"/>
    </g>
</svg>

<?xml version="1.0" encoding="UTF-8" standalone="no"?>
<svg id="svg2817" xmlns:rdf="http://www.w3.org/1999/02/22-rdf-syntax-ns#" xmlns="http://www.w3.org/2000/svg" height="22" width="22" version="1.0" xmlns:cc="http://creativecommons.org/ns#" xmlns:dc="http://purl.org/dc/elements/1.1/">
 <metadata id="metadata57">
  <rdf:RDF>
   <cc:Work rdf:about="">
    <dc:format>image/svg+xml</dc:format>
    <dc:type rdf:resource="http://purl.org/dc/dcmitype/StillImage"/>
    <dc:title/>
   </cc:Work>
  </rdf:RDF>
 </metadata>
 <path id="path4350" style="color:#000000;block-progression:tb;text-decoration-line:none;text-transform:none;text-indent:0" d="m11 3a4 4 0 0 0 -4 4 4 4 0 0 0 4 4 4 4 0 0 0 4 -4 4 4 0 0 0 -4 -4zm-1 2h2v1h1v2h-1v1h-2v-1h-1v-2h1v-1zm1 8c-8.0004 0.004-8 5.145-8 5.145v0.855h10.174l1.535-1.535-2.123-2.121 1.92-1.92c-0.955-0.261-2.101-0.425-3.506-0.424zm4.414 0.93l-1.414 1.414 2.123 2.121-2.123 2.123 1.414 1.412 2.121-2.121 2.123 2.121 1.412-1.412-2.121-2.123 2.121-2.121-1.412-1.414-2.123 2.123-2.121-2.123z" fill="#fff"/>
 <g id="g4146" fill="none" transform="translate(-39.549 -10.213)">
  <path id="path4148" fill="none" d="m30.565 21.238 1.414 1.414-1.793 1.793h5.172v2h-5.172l1.793 1.793-1.414 1.414-4.207-4.207z"/>
 </g>
</svg>
